X: 5799
T: Cal Callaghan's
R: reel
M: 4/4
K: Dmajor
~F3A GEEG|FDDF A3G|~F3A GE~E2|AFGE D4:|
Adde dcAB|AGFG ABcA|~d3e dcAB|=cBAF G2 FG|
Adde dcAB|AGFG ABcA|d2 fd Adfd|~d2 fd ecAG||

